X: 1
T: Mick Duggan's
M: 2/4
L: 1/8
R: polka
K: Dmaj
|: e | fd A>d | fd Ad | fd/B/ AF | E2 E>e | 
fd Ad | fd Ad | f/e/d/B/ A/B/A/F/ | D2 D :|
|: E | FD F>A | de f/g/f/e/ | dB A/B/F | E2 E>E | 
F/E/D FA | de f>e | dB A/B/A/F/ | D2 D :|
